X: 2144
T: Coln.l Thornton's    Strathspey
T: Colonel Thornton's    Strathspey
%R: strathspey
B: Niel Gow & Sons "A Second Collection of Strathspey Reels, etc." v.2 p.14 #4 (and top 4 staffs on p.15)
Z: 2022 John Chambers <jc:trillian.mit.edu>
M: C	% It looks like "C/", but the '/' might be noise.
L: 1/8
Q: "Slowish"
K: Am
% - - - - - - - - - -
% Voice 1 reformatted for 2 8-bar lines, for compactness and proofreading.
V: 1 staves=2
B, | A,/A,/A, E>A, C3E | B,>G,D>G, E>G,DG, | A,/A,/A, E>A, C>A,E>C | B,>G,D>B, TE2A, :||:\
B, | A,<A,A2 E<EA2 | ~G>EDG B,<G,D<B, | A,<A,A2 E<EA2 | G>E^FD E2A, :|
|:\
E | (C/B,/)A, EA, (C/B,/)A, EA, | (B,/A,/G,) DG, EG,DG, | (C/B,/)A, EA, (C/B,/)A, EA, | (B,/A,/)G, DB, TE2A, :||:\
B, | A,<A,A2 E<EA2 | ~G>EDG B,<G,D>B, | A,<A,A2E<EA2 | G>E^F>D TE2A, :|
% - - - - - - - - - -
% Voice 2 preserves the staff layout in the book.
V: 2 clef=bass middle=d
z | A2A2 A2A2 | G2G2 G2G2 | A2A2 A2A2 | E2E2 A2A :||:
z | A2A2 A2A2  | G2g2 G2G2 | A2A2 A2A2 | e2E2 A2A :||: z | A2A2 A2A2 | G2G2
G2G2 | A2A2 A2A2 | E2E2 A2A :||: z | A2A2 c2A2 | B2d2 G2G2 | A2A2 c2A2 | e2E2 A2A :|


